X:1
T:Exsurgat Deus, 84.84
T:Exsurgat Deus, 84.84
T:John Stainer (1840-1901)
T:Public Domain Courtesy of the Cyber Hymnal™
C:John Stainer (1840-1901)
Z:Public Domain
Z:Courtesy of the Cyber Hymnal™
%%score ( 1 2 ) ( 3 4 )
L:1/8
Q:1/4=115
M:4/4
K:C
V:1 treble 
V:2 treble 
V:3 bass 
V:4 bass 
V:1
 [CE]2 | [CG]3 [CE] [CA]2 [EB]2 | [Ec]2 [EB]2 [FA]2 [CG]2 | [CF]4 [B,G]4 | [CE]6 [B,E]2 | %5
 [EA]3 E A2 [^GB]2 | [Ac]2 [Ad]2 [^Ge]2 [Ac]2 | [Ac]4 B4 | [Ec]6 |] %9
V:2
 x2 | x8 | x8 | x8 | x8 | x3 E (E^F) x2 | x8 | x4 (G2 F2) | x6 |] %9
V:3
 [C,G,]2 | [E,G,]3 [C,G,] [F,A,]2 [E,^G,]2 | A,2 [G,B,]2 [F,C]2 [E,G,]2 | [D,A,]4 [G,,G,]4 | %4
 [C,G,]6 [D,^G,]2 | [C,A,]3 [C,A,] [CE]2 [B,D]2 | [A,C]2 [F,A,]2 [E,B,]2 [A,C]2 | [F,D]4 [G,D]4 | %8
 [C,C]6 |] %9
V:4
 x2 | x8 | A,2 x6 | x8 | x8 | x8 | x8 | x8 | x6 |] %9

